X:2
T:Gan Ainm
M:6/8
L:1/8
R:Jig
D:Dervish - At the End of the Day
Z:John Norvell
K:DMix
|: F2D DAG | F2D DAG | F2D DED | C2A, A,AG |!
 F2D DAG | F2D DED | ~B3 cAF |1 AGF GAG :|2 AGF G2A |!
|: ~B3 ~c3 | ~d3 ABc | B2G GAG | FAD DFD |!
 ~B3 ~c3 | ~d3 ABc | BAB cAF |1 AGF G2A :|2 AGF GAG :|3 "next tune" AGF G2A :|
